X:1
T: Ken Galbraith's Reel
C:Bruce Shawyer
R:Reel
Q:232
K:D
M:4/4
L:1/8
"D"D2d2d2AG|"D"F2D2D4|"Em"E2e2e2dd|"A7"c2A2A4|"D"D2d2d2AG|"D"F2D2D4|"G"GAB2 "A7"ABc2|"D"d2D2D4|
"D"f2f2f2ed|"Em"e2e2e4|"A7"e2e2e2dc|"D"d2d2d4|"D"f2f2f2ef|"Em"g2g2g4|"A7"agfe dcBA|"D"d2d2d4|
"D"D2d2d2AG|"D"F2D2D4|"Em"E2e2e2dd|"A7"c2A2A4|"D"D2d2d2AG|"D"F2D2D4|"G"GAB2 "A7"ABc2|"D"d2D2D4|
"D"f2f2f2ed|"Em"e2e2e4|"A7"e2e2e2dc|"D"d2d2d4|"D"f2f2f2ef|"Em"g2g2g4|"A7"agfe dcBA|"D"d2d2d4||
